src/images/icon/icon_resource_data.svg

<svg height="20" viewBox="0 0 20 20" width="20" xmlns="http://www.w3.org/2000/svg"><g fill="none"><path d="m8.10565668 10.0236837-4.55981306-2.29153611-.01683831-.01019972c-.20542732-.09859725-.41085464-.14629046-.606179-.14629046-.24247159-.00330535-.47820787.08509218-.66006156.24828762-.17175072.16319545-.26604522.3909891-.26267755.62898245v6.19122722c0 .2583928.10439749.5439849.29972182.8023777.18858902.2549928.44789892.4691869.73078246.6051831l4.55644539 2.2949359.01347066.0067998h.00336766c.20879498.0951974.41085464.146196.60617899.146196.2424716.0067998.48157553-.0849977.66006157-.2481931.17175072-.1631955.26604522-.3909891.26267755-.6289825v-6.1878273c0-.2583928-.10776516-.5439848-.29972183-.8023776-.19099805-.2584573-.44039149-.4671093-.72741479-.608583z" fill="#b6c2cd"/><path d="m17.740535 7.82734493c-.1818537-.16659535-.41759-.25499289-.6600616-.24819307-.198692 0-.4007517.04759868-.606179.14619591l-4.5732837 2.30173583c-.2828835.1359962-.5421934.3501902-.7307825.6017832-.1919566.2583928-.2997218.5473847-.2997218.8023776v6.1912272c0 .2447932.0942945.469187.2626776.6289825.168383.1597955.4041193.2481931.6600615.2481931h.0033677c.208795-.0033999.4209576-.0543985.606179-.146196l4.5530777-2.3017357c.2828836-.1359962.5455611-.3501903.7307825-.6051831.1919567-.2583928.2963541-.5439849.2963542-.8023777l.0168383-6.19122722c.004513-.23605711-.08961-.4631278-.2593099-.62558255z" fill="#79879c"/><path d="m16.12069 5.81120119c.4041193-.19719449.6331203-.50998577.6297892-.86017601-.0034042-.34679033-.2324052-.65278179-.6264215-.83977656l-5.0716976-2.41053276c-.3131925-.13599621-.6499586-.20399431-.99346-.20059439-.38728103 0-.75772374.07819782-1.04734259.21759393l-5.12221246 2.51592979c-.40075167.1971945-.63312028.50998578-.62978873.86017602.00340376.34679032.23240471.65618168.62642106.83977656l5.06832988 2.41053275c.19532434.09179744.43106062.15639563.6836352.18359487l-.0168383.01699952h.32666312c.38391332 0 .75772372-.07819781 1.04734262-.22099383z" fill="#b6c2cd"/></g></svg>

<?xml version="1.0" encoding="UTF-8"?>
<svg width="20px" height="20px" viewBox="0 0 20 20" version="1.1" xmlns="http://www.w3.org/2000/svg" xmlns:xlink="http://www.w3.org/1999/xlink">
    
    <g id="Dashboard" stroke="none" stroke-width="1" fill="none" fill-rule="evenodd">
        <g id="00-Menu-交互备份" transform="translate(-859.000000, -299.000000)" fill-rule="nonzero">
            <g id="编组-8" transform="translate(859.000000, 299.000000)">
                <path d="M8.10565668,10.0236837 L3.54584362,7.73214759 L3.52900531,7.72194787 C3.32357799,7.62335062 3.11815067,7.57565741 2.92282631,7.57565741 C2.68035472,7.57235206 2.44461844,7.66074959 2.26276475,7.82394503 C2.09101403,7.98714048 1.99671953,8.21493413 2.0000872,8.45292748 L2.0000872,14.6441547 C2.0000872,14.9025475 2.10448469,15.1881396 2.29980902,15.4465324 C2.48839804,15.7015252 2.74770794,15.9157193 3.03059148,16.0517155 L7.58703687,18.3466514 L7.60050753,18.3534512 L7.60387519,18.3534512 C7.81267017,18.4486486 8.01472983,18.4996472 8.21005418,18.4996472 C8.45252578,18.506447 8.69162971,18.4146495 8.87011575,18.2514541 C9.04186647,18.0882586 9.13616097,17.860465 9.1327933,17.6224716 L9.1327933,11.4346443 C9.1327933,11.1762515 9.02502814,10.8906595 8.83307147,10.6322667 C8.64207342,10.3738094 8.39267998,10.1651574 8.10565668,10.0236837 L8.10565668,10.0236837 Z" id="路径" fill="#B6C2CD"></path>
                <path d="M17.740535,7.82734493 C17.5586813,7.66074958 17.322945,7.57235204 17.0804734,7.57915186 C16.8817814,7.57915186 16.6797217,7.62675054 16.4742944,7.72534777 L11.9010107,10.0270836 C11.6181272,10.1630798 11.3588173,10.3772738 11.1702282,10.6288668 C10.9782716,10.8872596 10.8705064,11.1762515 10.8705064,11.4312444 L10.8705064,17.6224716 C10.8705064,17.8672648 10.9648009,18.0916586 11.133184,18.2514541 C11.301567,18.4112496 11.5373033,18.4996472 11.7932455,18.4996472 L11.7966132,18.4996472 C12.0054082,18.4962473 12.2175708,18.4452487 12.4027922,18.3534512 L16.9558699,16.0517155 C17.2387535,15.9157193 17.501431,15.7015252 17.6866524,15.4465324 C17.8786091,15.1881396 17.9830065,14.9025475 17.9830066,14.6441547 L17.9998449,8.45292748 C18.0043579,8.21687037 17.9102349,7.98979968 17.740535,7.82734493 L17.740535,7.82734493 Z" id="路径" fill="#79879C"></path>
                <path d="M16.12069,5.81120119 C16.5248093,5.6140067 16.7538103,5.30121542 16.7504792,4.95102518 C16.747075,4.60423485 16.518074,4.29824339 16.1240577,4.11124862 L11.0523601,1.70071586 C10.7391676,1.56471965 10.4024015,1.49672155 10.0589001,1.50012147 C9.67161907,1.50012147 9.30117636,1.57831929 9.01155751,1.7177154 L3.88934505,4.23364519 C3.48859338,4.43083969 3.25622477,4.74363097 3.25955632,5.09382121 C3.26296008,5.44061153 3.49196103,5.75000289 3.88597738,5.93359777 L8.95430726,8.34413052 C9.1496316,8.43592796 9.38536788,8.50052615 9.63794246,8.52772539 L9.62110416,8.54472491 L9.94776728,8.54472491 C10.3316806,8.54472491 10.705491,8.4665271 10.9951099,8.32373108 L16.12069,5.81120119 Z" id="路径" fill="#B6C2CD"></path>
            </g>
        </g>
    </g>
</svg>
